images/provide-serf.svg

<svg width="50" height="50" viewBox="0 0 50 50" fill="none" xmlns="http://www.w3.org/2000/svg">
<path d="M43.9961 47.7223C43.852 47.714 43.7037 47.7066 43.5583 47.6989C43.8236 47.1231 43.4787 46.3137 42.8527 46.1613C41.0157 45.7132 39.1233 45.9451 37.2284 45.3812C34.1877 44.4763 31.3566 42.8234 28.7435 41.0342C23.582 37.4995 18.0697 30.9615 25.2075 26.3245C26.052 25.7763 25.8067 24.137 24.6557 24.2514C22.8644 24.4299 21.0702 24.5269 19.2736 24.6291C20.2241 24.0899 20.9952 22.8291 21.592 22.083C22.797 20.5762 24.1816 19.9738 26.0881 19.8577C27.2837 19.7849 27.4607 18.1985 26.3635 17.7889C26.1565 17.7116 25.9557 17.3937 25.761 17.2569C25.301 16.9336 24.8298 16.6816 24.32 16.4486C23.8485 16.2332 23.3661 16.0449 22.8826 15.859C25.2775 15.0165 26.7825 12.1083 29.6697 11.9803C30.7194 11.9338 31.1835 10.7301 30.4985 9.94465C29.7644 9.10294 29.2165 8.22855 28.609 7.3956C30.1132 7.32176 31.6142 7.39188 33.1184 7.63438C33.6298 7.71699 34.0652 6.95336 33.5037 6.70448C31.2532 5.70712 28.8053 5.59504 26.4099 5.22849C25.0386 5.01866 24.3409 6.62852 25.478 7.47767C26.3906 8.15923 26.9965 9.06681 27.6116 9.97945C26.6488 10.2764 25.7529 10.7285 24.8658 11.3904C23.5663 12.3601 21.9572 13.3707 21.0104 14.6967C20.6989 15.1331 20.9579 15.7472 21.3926 15.9812C21.4111 16.0916 21.4667 16.1947 21.5779 16.2595C22.1663 16.6024 22.7657 16.9251 23.3551 17.2664C23.4778 17.3374 23.8984 17.5961 24.2947 17.8627C22.8907 18.0718 21.6231 18.604 20.4964 19.6745C19.898 20.2429 19.4034 20.9273 18.8635 21.551C18.1743 22.3473 17.3951 22.8033 17.2528 23.9067C17.1797 24.4737 17.7465 24.8273 18.2091 24.8796C18.2902 24.8889 18.3665 24.869 18.4456 24.8655C18.0749 25.2538 18.2315 26.0385 18.9254 26.0783C19.8265 26.1301 20.7269 26.1803 21.6267 26.2377C17.339 30.4749 19.7626 36.3584 24.3325 40.7136C26.0058 42.3081 29.7814 45.2524 33.6807 47.1852C21.1607 46.3206 7.5723 43.7341 3.55865 30.3442C1.23113 22.5789 5.08815 14.1447 10.3499 8.64768C13.1246 5.74882 16.6777 3.83006 20.5306 2.9416C25.1222 1.88261 28.7406 4.00643 32.7464 5.83568C33.7611 6.2989 34.7635 5.12969 33.9587 4.23751C28.3261 -2.00644 18.6651 -0.551164 12.2884 3.46963C4.80021 8.1911 0.196849 17.148 0.00419411 25.9837C-0.19577 35.1637 6.78341 43.2505 14.7684 46.625C24.0957 50.5669 34.1222 50.2299 43.9961 49.6503C45.2165 49.5783 45.2178 47.7916 43.9961 47.7223Z" fill="#00B2A0"/>
<path d="M49.8096 44.1407C48.8862 41.9994 47.3165 40.1715 45.4915 38.5858C45.5096 34.9076 45.5544 31.2282 45.5229 27.5503C45.5218 27.4198 45.5067 27.2987 45.4819 27.1853C45.6137 25.8023 45.5119 24.4548 45.2754 23.1053C45.2772 23.1042 45.2793 23.1026 45.2811 23.1016C46.1395 22.8657 46.8349 22.1592 47.5152 21.6065C48.0611 21.1629 48.6121 20.7129 49.1267 20.2282C49.2311 20.1424 49.3295 20.0489 49.4256 19.9552C50.9143 18.4956 48.6555 16.2064 47.163 17.6531C46.9401 17.8691 46.702 18.0677 46.464 18.2654C46.3063 18.396 46.146 18.5238 45.9865 18.6518C45.9016 18.7195 45.8165 18.787 45.7312 18.8542C45.962 18.6717 45.5372 19.0043 45.5404 19.0019C45.2033 19.2635 44.8329 19.5137 44.4868 19.7886C44.2445 18.9419 43.938 18.0499 43.4739 17.3477C43.8548 17.166 44.221 16.9655 44.5481 16.7317C45.9079 15.7609 47.0999 14.0807 46.4491 12.3104C46.0664 11.2695 45.3323 10.5297 44.4113 9.95391C44.2087 9.82721 43.9829 9.71087 43.7605 9.59374C43.6287 9.35868 43.4817 9.13078 43.2982 8.92175C43.2102 8.82135 43.1212 8.74459 43.0327 8.66225C43.0666 8.38655 42.9045 8.08747 42.5639 8.10102C42.4211 8.10659 42.2811 8.10394 42.1404 8.10288C41.7778 7.98255 41.4184 7.98202 41.067 8.06994C39.9296 8.02133 38.8611 8.03541 37.8621 8.94433C37.1928 9.5531 36.8967 10.3369 36.8897 11.1765C35.9522 13.4358 35.6985 16.2215 38.0968 17.5201C38.487 17.7315 38.9105 17.8608 39.3443 17.9501C39.0945 18.8149 38.9063 19.6861 38.7564 20.5645C37.198 20.9137 35.5813 21.815 34.2656 22.3608C32.3346 22.9727 33.1379 26.0092 35.103 25.4514C36.2143 25.1359 37.282 24.6798 38.3536 24.2474C38.3051 25.095 38.2779 25.9521 38.2672 26.8214C38.2649 27.0108 38.3197 27.2217 38.4038 27.4212C38.126 28.2871 37.8389 29.2695 37.6517 30.2348C37.4026 31.1155 37.1494 31.9955 36.8764 32.8694C34.2358 31.4016 30.7477 29.8693 28.4812 31.3912C28.4747 31.3822 28.4671 31.3737 28.4604 31.3647C27.6354 30.2478 25.9089 31.1899 26.5821 32.4821C30.8103 40.5991 39.1974 45.1509 47.8277 46.7642C49.4271 47.0627 50.4424 45.608 49.8096 44.1407ZM30.9286 34.2768C31.2246 34.3432 31.5337 34.4441 31.8373 34.5294C31.7997 34.7669 31.8357 35.0149 31.9621 35.2309C31.9905 35.2792 32.0271 35.3228 32.0563 35.3703C31.6749 35.0147 31.2948 34.6572 30.9286 34.2768ZM39.5994 34.4638C39.6845 34.4088 39.7657 34.3406 39.838 34.2518C40.3807 33.5886 40.5091 32.8279 40.6169 32.0239C41.0994 30.9931 41.5197 29.941 41.8713 28.8682C42.0681 28.8956 42.2697 28.911 42.4694 28.9312C42.46 31.3862 42.4701 33.8412 42.4869 36.2965C41.522 35.6402 40.5446 35.0311 39.5994 34.4638Z" fill="#00B2A0"/>
</svg>

<svg width="50" height="50" fill="none" xmlns="http://www.w3.org/2000/svg"><path d="M43.996 47.722l-.438-.023c.266-.576-.08-1.385-.705-1.538-1.837-.448-3.73-.216-5.625-.78-3.04-.905-5.871-2.558-8.485-4.347-5.161-3.535-10.673-10.072-3.535-14.71.844-.548.599-2.187-.552-2.073-1.792.179-3.586.276-5.382.378.95-.54 1.721-1.8 2.318-2.546 1.205-1.507 2.59-2.11 4.496-2.225 1.196-.073 1.373-1.66.275-2.07-.206-.076-.407-.394-.602-.531a8.844 8.844 0 00-1.441-.808 25.27 25.27 0 00-1.437-.59c2.395-.842 3.9-3.75 6.787-3.879 1.05-.046 1.513-1.25.828-2.035-.734-.842-1.282-1.716-1.889-2.55a21.576 21.576 0 014.51.24c.51.082.946-.682.385-.93-2.25-.998-4.699-1.11-7.094-1.477-1.371-.21-2.07 1.4-.932 2.25.913.681 1.518 1.589 2.134 2.501a8.906 8.906 0 00-2.746 1.411c-1.3.97-2.909 1.98-3.856 3.307-.311.436-.052 1.05.383 1.284.018.11.074.214.185.278.588.343 1.188.666 1.777 1.007.123.071.543.33.94.597-1.404.209-2.672.741-3.799 1.811-.598.569-1.093 1.253-1.633 1.877-.689.796-1.468 1.252-1.61 2.356-.073.567.494.92.956.973.081.009.157-.011.237-.014-.371.388-.215 1.172.48 1.212.9.052 1.8.102 2.7.16-4.287 4.237-1.863 10.12 2.706 14.476 1.674 1.594 5.45 4.538 9.349 6.471-12.52-.864-26.109-3.45-30.122-16.84-2.328-7.766 1.53-16.2 6.79-21.697 2.776-2.9 6.329-4.818 10.182-5.706 4.591-1.06 8.21 1.064 12.215 2.894 1.015.463 2.017-.706 1.213-1.598-5.633-6.244-15.294-4.79-21.67-.768C4.8 8.19.196 17.148.003 25.984c-.2 9.18 6.78 17.267 14.764 20.641 9.328 3.942 19.354 3.605 29.228 3.025 1.22-.072 1.222-1.858 0-1.928z" fill="#00B2A0"/><path d="M49.81 44.14c-.924-2.14-2.494-3.968-4.319-5.554.019-3.678.063-7.358.032-11.036a1.77 1.77 0 00-.041-.365c.132-1.383.03-2.73-.207-4.08l.006-.003c.858-.236 1.554-.943 2.234-1.495a29.07 29.07 0 001.612-1.379 4.78 4.78 0 00.299-.273c1.488-1.46-.77-3.749-2.263-2.302-.223.216-.461.415-.699.612-.158.131-.318.259-.477.387a55.257 55.257 0 01-.447.35c-.337.262-.707.512-1.053.787-.242-.847-.549-1.74-1.013-2.441.38-.182.747-.383 1.074-.616 1.36-.971 2.552-2.651 1.901-4.422-.383-1.04-1.117-1.78-2.038-2.356-.202-.127-.428-.243-.65-.36a3.878 3.878 0 00-.463-.672c-.088-.1-.177-.177-.265-.26.034-.275-.129-.575-.47-.561-.142.006-.282.003-.423.002a1.889 1.889 0 00-1.073-.033c-1.137-.049-2.206-.035-3.205.874-.67.61-.965 1.393-.972 2.232-.938 2.26-1.191 5.045 1.207 6.344.39.212.813.34 1.247.43-.25.865-.438 1.736-.588 2.614-1.558.35-3.175 1.251-4.49 1.797-1.931.612-1.128 3.648.837 3.09 1.111-.315 2.179-.771 3.25-1.204a57.423 57.423 0 00-.086 2.574c-.002.19.053.4.137.6-.278.866-.565 1.849-.752 2.814-.25.88-.503 1.76-.776 2.634-2.64-1.467-6.128-3-8.395-1.478l-.02-.026c-.826-1.117-2.552-.175-1.879 1.117C30.81 40.6 39.197 45.151 47.828 46.764c1.6.299 2.614-1.156 1.982-2.623zm-18.881-9.863c.296.066.605.167.908.252-.037.238-.001.486.125.702.029.048.065.092.094.14a28.98 28.98 0 01-1.127-1.094zm8.67.187c.086-.055.167-.123.239-.212.543-.663.671-1.424.779-2.228.482-1.03.903-2.083 1.254-3.156.197.028.399.043.598.063-.009 2.455.001 4.91.018 7.366a60.367 60.367 0 00-2.888-1.833z" fill="#00B2A0"/></svg>
